src/assets/images/integration-logo.svg

<svg width="73" height="79" viewBox="0 0 73 79" fill="none" xmlns="http://www.w3.org/2000/svg">
<path d="M30.1902 64.5088H28.0531L27.8265 61.9184H27.7293C27.2436 63.6669 26.2075 64.9945 24.8151 64.9945C23.3256 64.9945 22.3866 63.4079 22.3866 60.3641V58.1947C22.3866 55.1509 23.3256 53.5967 24.977 53.5967C26.1751 53.5967 27.0493 54.4386 27.4703 55.8309H27.5674V50.7796C27.5674 49.3549 27.1789 48.7721 26.3046 48.7721C25.4627 48.7721 25.1065 49.3549 25.1065 50.7796V52.4634H22.4838V51.1358C22.4838 48.0597 23.8437 46.5378 26.3046 46.5378C28.7979 46.5378 30.1902 48.0597 30.1902 51.1358V64.5088ZM26.0132 62.7603C26.9198 62.7603 27.5674 61.627 27.5674 59.4251V57.8385C27.5674 56.6081 26.9522 55.8309 26.1103 55.8309C25.398 55.8309 25.0094 56.4138 25.0094 57.8385V60.7203C25.0094 62.145 25.3332 62.7603 26.0132 62.7603ZM34.5049 47.0235H36.8038L36.9657 49.873H37.0305C37.1276 47.0883 38.6171 47.0235 40.1714 47.0235V49.7435C37.8076 49.7435 37.1276 50.812 37.1276 52.6577V64.5088H34.5049V47.0235ZM48.8247 57.9033H51.4475V60.3641C51.4475 63.4402 50.0875 64.9945 47.6266 64.9945C45.1334 64.9945 43.741 63.4402 43.741 60.3641V51.1358C43.741 48.0597 45.1334 46.5378 47.6266 46.5378C50.0875 46.5378 51.4475 48.0597 51.4475 51.1358V56.2519H46.3638V60.7203C46.3638 62.145 46.7524 62.7603 47.5942 62.7603C48.4685 62.7603 48.8247 62.145 48.8247 60.7203V57.9033ZM48.8247 50.7796C48.8247 49.3549 48.4685 48.7721 47.6266 48.7721C46.7524 48.7721 46.3638 49.3549 46.3638 50.7796V54.3414H48.8247V50.7796ZM63.3444 47.0235L61.1749 55.6043V55.669L63.3444 64.5088H60.6892L59.4588 58.8747L59.2645 56.6081H59.135L58.9407 58.8747L57.8074 64.5088H55.1522L57.1922 55.6043V55.5395L55.1522 47.0235H57.8074L58.9083 52.3663L59.135 54.6005H59.2645L59.4911 52.3663L60.6892 47.0235H63.3444Z" fill="url(#paint0_linear_1_496)"/>
<g clip-path="url(#clip0_1_496)">
<path d="M58.7737 3.28588L58.8356 3.40393L58.9519 3.46998L60.1419 4.14844L58.9337 4.79407L58.8157 4.85692L58.7506 4.9742L58.0809 6.16729L57.446 4.95634L57.3842 4.83732L57.2669 4.77125L56.0749 4.09276L57.285 3.44813L57.4041 3.38433L57.4691 3.26704L58.1369 2.07295L58.7737 3.28588Z" fill="url(#paint1_linear_1_496)" stroke="url(#paint2_linear_1_496)" stroke-width="0.914635"/>
<path d="M47.6429 8.42239L47.7048 8.54141L47.8221 8.60747L50.2642 9.9965L47.7849 11.3211L47.6659 11.3839L47.6008 11.5012L46.2273 13.9524L44.9204 11.4635L44.8585 11.3455L44.7422 11.2794L42.3011 9.88749L44.7794 8.56582L44.8974 8.50298L44.9625 8.38569L46.3371 5.9326L47.6429 8.42239Z" fill="url(#paint3_linear_1_496)" stroke="url(#paint4_linear_1_496)" stroke-width="0.914635"/>
<path d="M71.6568 38.5697C71.6568 38.5697 32.581 36.5344 4.03781 68.7641C4.03781 68.7641 3.26803 59.8292 0.431044 49.743L26.4108 20.1039C26.4108 20.1039 12.9827 23.5193 0.792327 23.3524C0.792327 23.3524 3.98903 17.9973 7.0825 9.1913C7.0825 9.1913 20.8468 13.8787 34.7589 7.77059L40.116 15.6039L20.2375 42.213C20.5516 42.0373 48.0178 26.7655 71.6568 38.5697Z" fill="url(#paint5_linear_1_496)"/>
</g>
<defs>
<linearGradient id="paint0_linear_1_496" x1="23.6552" y1="66.0445" x2="66.7708" y2="65.9767" gradientUnits="userSpaceOnUse">
<stop stop-color="#D8AE6B"/>
<stop offset="1" stop-color="#1AD079"/>
</linearGradient>
<linearGradient id="paint1_linear_1_496" x1="55.3422" y1="5.16886" x2="60.5017" y2="5.2332" gradientUnits="userSpaceOnUse">
<stop stop-color="#D8AE6B"/>
<stop offset="1" stop-color="#1AD079"/>
</linearGradient>
<linearGradient id="paint2_linear_1_496" x1="55.3422" y1="5.16886" x2="60.5017" y2="5.2332" gradientUnits="userSpaceOnUse">
<stop stop-color="#D8AE6B"/>
<stop offset="1" stop-color="#1AD079"/>
</linearGradient>
<linearGradient id="paint3_linear_1_496" x1="41.7094" y1="11.6757" x2="50.2392" y2="11.782" gradientUnits="userSpaceOnUse">
<stop stop-color="#D8AE6B"/>
<stop offset="1" stop-color="#1AD079"/>
</linearGradient>
<linearGradient id="paint4_linear_1_496" x1="41.7094" y1="11.6757" x2="50.2392" y2="11.782" gradientUnits="userSpaceOnUse">
<stop stop-color="#D8AE6B"/>
<stop offset="1" stop-color="#1AD079"/>
</linearGradient>
<linearGradient id="paint5_linear_1_496" x1="3.17295" y1="49.1338" x2="64.669" y2="49.8881" gradientUnits="userSpaceOnUse">
<stop stop-color="#D8AE6B"/>
<stop offset="1" stop-color="#1AD079"/>
</linearGradient>
<clipPath id="clip0_1_496">
<rect width="71.0657" height="68.3849" fill="white" transform="translate(1.1076 0.333008) rotate(0.784335)"/>
</clipPath>
</defs>
</svg>

<svg xmlns="http://www.w3.org/2000/svg" width="73" height="79" fill="none" viewBox="0 0 73 79"><path fill="url(#a)" d="M30.19 64.509h-2.137l-.227-2.59h-.097c-.485 1.748-1.521 3.076-2.914 3.076-1.49 0-2.428-1.587-2.428-4.63v-2.17c0-3.044.939-4.598 2.59-4.598 1.198 0 2.072.842 2.493 2.234h.097V50.78c0-1.425-.388-2.008-1.262-2.008-.842 0-1.198.583-1.198 2.008v1.683h-2.623v-1.327c0-3.076 1.36-4.598 3.82-4.598 2.494 0 3.886 1.522 3.886 4.598zm-4.177-1.749c.907 0 1.554-1.133 1.554-3.335V57.84c0-1.23-.615-2.008-1.457-2.008-.712 0-1.1.583-1.1 2.008v2.881c0 1.425.323 2.04 1.003 2.04m8.492-15.736h2.299l.162 2.849h.065c.097-2.785 1.586-2.85 3.14-2.85v2.72c-2.363 0-3.043 1.069-3.043 2.915v11.85h-2.623zm14.32 10.88h2.622v2.46c0 3.076-1.36 4.63-3.82 4.63-2.494 0-3.886-1.554-3.886-4.63v-9.228c0-3.076 1.392-4.598 3.886-4.598 2.46 0 3.82 1.522 3.82 4.598v5.116h-5.083v4.468c0 1.425.388 2.04 1.23 2.04.874 0 1.23-.615 1.23-2.04zm0-7.124c0-1.425-.357-2.008-1.198-2.008-.875 0-1.263.583-1.263 2.008v3.561h2.46zm14.52-3.757-2.17 8.581v.065l2.17 8.84h-2.656l-1.23-5.634-.195-2.267h-.129l-.194 2.267-1.134 5.634h-2.655l2.04-8.905v-.065l-2.04-8.516h2.655l1.101 5.343.227 2.234h.13l.226-2.234 1.198-5.343z"/><g clip-path="url(#b)"><path fill="url(#c)" stroke="url(#d)" stroke-width=".915" d="m58.774 3.286.062.118.116.066 1.19.678-1.208.646-.118.063-.065.117-.67 1.193-.635-1.21-.062-.12-.117-.066-1.192-.678 1.21-.645.12-.064.064-.117.668-1.194z"/><path fill="url(#e)" stroke="url(#f)" stroke-width=".915" d="m47.643 8.422.062.12.117.065 2.442 1.39-2.48 1.324-.118.063-.065.117-1.374 2.451-1.307-2.488-.062-.119-.116-.066-2.44-1.392 2.477-1.321.118-.063.066-.117 1.374-2.453z"/><path fill="url(#g)" d="M71.657 38.57S32.58 36.534 4.037 68.764c0 0-.769-8.935-3.606-19.021l25.98-29.64S12.983 23.52.792 23.354c0 0 3.197-5.356 6.29-14.162 0 0 13.765 4.688 27.677-1.42l5.357 7.833-19.878 26.609c.314-.176 27.78-15.448 51.419-3.643"/></g><defs><linearGradient id="a" x1="23.655" x2="66.771" y1="66.044" y2="65.977" gradientUnits="userSpaceOnUse"><stop stop-color="#d8ae6b"/><stop offset="1" stop-color="#1ad079"/></linearGradient><linearGradient id="c" x1="55.342" x2="60.502" y1="5.169" y2="5.233" gradientUnits="userSpaceOnUse"><stop stop-color="#d8ae6b"/><stop offset="1" stop-color="#1ad079"/></linearGradient><linearGradient id="d" x1="55.342" x2="60.502" y1="5.169" y2="5.233" gradientUnits="userSpaceOnUse"><stop stop-color="#d8ae6b"/><stop offset="1" stop-color="#1ad079"/></linearGradient><linearGradient id="e" x1="41.709" x2="50.239" y1="11.676" y2="11.782" gradientUnits="userSpaceOnUse"><stop stop-color="#d8ae6b"/><stop offset="1" stop-color="#1ad079"/></linearGradient><linearGradient id="f" x1="41.709" x2="50.239" y1="11.676" y2="11.782" gradientUnits="userSpaceOnUse"><stop stop-color="#d8ae6b"/><stop offset="1" stop-color="#1ad079"/></linearGradient><linearGradient id="g" x1="3.173" x2="64.669" y1="49.134" y2="49.888" gradientUnits="userSpaceOnUse"><stop stop-color="#d8ae6b"/><stop offset="1" stop-color="#1ad079"/></linearGradient><clipPath id="b"><path fill="#fff" d="m1.108.333 71.059.973-.936 68.378-71.06-.972z"/></clipPath></defs></svg>
